assets/images/simple-illustrations/simple-illustration__lockclosed.svg

<svg xmlns="http://www.w3.org/2000/svg" width="48" height="48" fill="none" viewBox="0 0 48 48"><path fill="#4ED7DE" d="M38.0495 22.1909H9.88184V31.8505C9.88184 31.8505 10.1539 43.5862 24.8691 43.4964C34.5286 43.4964 38.2318 34.83 38.3216 31.2192C38.4114 27.6084 38.0495 22.1909 38.0495 22.1909Z"/><path fill="#4BA6A6" d="M12.6817 22.1012H9.88184V32.1226C9.88184 32.1226 10.9648 43.0475 22.5208 43.3169C22.5208 43.3169 13.1307 40.9686 12.4994 30.588C12.1375 24.8113 12.679 22.1012 12.679 22.1012H12.6817Z"/><path fill="#D18000" d="M24.7793 24.4493C24.7793 24.4493 27.2173 25.984 27.2173 27.6084C27.2173 29.2328 26.1344 31.2192 25.5031 31.4015L26.8581 39.7087L28.9343 39.3468L27.669 30.86C27.669 30.86 29.8349 29.4152 29.4757 27.7009C29.1166 25.9867 27.8513 23.8181 24.782 24.452L24.7793 24.4493Z"/><path fill="#002140" d="M25.5 31.4014C25.5 31.4014 27.2768 29.8069 27.2768 28.06C27.2768 26.3132 25.5925 24.6887 24.2674 24.6887C22.9423 24.6887 22.0797 26.9199 22.1015 27.3961C22.1205 27.875 22.8851 30.226 23.8456 30.8872L22.2212 39.4937C22.2212 39.4937 25.9517 40.2773 26.855 39.7032L25.5 31.396V31.4014Z"/><path fill="#D18000" d="M17.8272 22.0114L17.6258 20.2971C17.6258 20.2971 17.9279 19.8455 16.5211 19.8455C15.1144 19.8455 12.7036 19.9353 12.7036 19.9353C12.7036 19.9353 11.9009 20.025 11.9009 20.6563V22.0114H17.8272Z"/><path fill="#D18000" d="M36.545 22.0114L36.3436 20.2971C36.3436 20.2971 36.6456 19.8455 35.2389 19.8455C33.8321 19.8455 31.4213 19.9353 31.4213 19.9353C31.4213 19.9353 30.6187 20.025 30.6187 20.6563V22.0114H36.5477H36.545Z"/><path fill="#E4BC07" d="M35.9435 19.5134L35.7204 14.4197C35.7204 14.4197 33.5953 4.64859 24.1752 4.9479C14.7579 5.24993 12.6627 14.2809 12.6627 14.2809L12.1104 19.6359L17.2013 19.5161L17.2258 15.1217C17.2258 15.1217 18.7985 9.83482 24.2106 9.76952C29.6226 9.70421 30.7083 15.1816 30.7083 15.1816L31.3097 19.7556L35.9435 19.5161V19.5134Z"/><path stroke="#002140" stroke-linecap="round" stroke-linejoin="round" d="M38.2726 22.1229V30.539C38.2726 37.6843 32.4796 43.4774 25.3343 43.4774C18.189 43.4774 12.396 37.6843 12.396 30.539V22.1229H38.2726V22.1229Z"/><path stroke="#002140" stroke-linecap="round" stroke-linejoin="round" d="M25.9683 43.4773C14.404 43.4773 9.90625 37.6843 9.90625 30.5362V22.1201H13.185"/><path stroke="#002140" stroke-linecap="round" stroke-linejoin="round" d="M29.4243 27.8751C29.4243 25.8588 27.789 24.2235 25.7727 24.2235C23.7565 24.2235 22.1212 25.8588 22.1212 27.8751C22.1212 29.2057 22.8341 30.3648 23.8953 31.0042L22.0776 39.3468C22.0776 39.3468 25.1741 41.1726 28.9046 39.3468L27.3945 31.1403C28.5944 30.5417 29.4216 29.3063 29.4216 27.8724L29.4243 27.8751Z"/><path stroke="#002140" stroke-linecap="round" stroke-linejoin="round" d="M26.7632 39.6653L25.253 31.4587C26.453 30.8601 27.2802 29.6248 27.2802 28.1908C27.2802 26.4249 26.0285 24.9528 24.3633 24.6127"/><path stroke="#002140" stroke-linecap="round" stroke-linejoin="round" d="M11.7812 21.946V20.61C11.7812 20.1637 12.1976 19.8046 12.7118 19.8046H16.8967C17.411 19.8046 17.8273 20.1665 17.8273 20.61V21.946"/><path stroke="#002140" stroke-linecap="round" stroke-linejoin="round" d="M30.4985 21.946V20.61C30.4985 20.1637 30.9148 19.8046 31.4291 19.8046H35.614C36.1283 19.8046 36.5446 20.1665 36.5446 20.61V21.946"/><path stroke="#002140" stroke-linecap="round" stroke-linejoin="round" d="M17.1987 19.8046V16.4986C17.1987 12.6456 20.3224 9.52466 24.1726 9.52466C28.0256 9.52466 31.1465 12.6484 31.1465 16.4986V19.7747"/><path stroke="#002140" stroke-linecap="round" stroke-linejoin="round" d="M35.943 19.772V16.7163C35.943 10.2159 30.6752 4.948 24.1747 4.948C17.677 4.948 12.4092 10.2159 12.4092 16.7163V19.8047"/></svg>

<svg xmlns="http://www.w3.org/2000/svg" width="48" height="48" fill="none" viewBox="0 0 48 48"><path fill="#4ed7de" d="M38.05 22.19H9.882v9.66s.272 11.736 14.987 11.646c9.66 0 13.363-8.666 13.453-12.277s-.273-9.028-.273-9.028"/><path fill="#4ba6a6" d="M12.682 22.101h-2.8v10.022s1.083 10.925 12.639 11.194c0 0-9.39-2.348-10.022-12.729-.362-5.777.18-8.487.18-8.487z"/><path fill="#d18000" d="M24.78 24.45s2.437 1.534 2.437 3.158c0 1.625-1.083 3.611-1.714 3.793l1.355 8.308 2.076-.362-1.265-8.487s2.166-1.445 1.807-3.16c-.36-1.713-1.625-3.882-4.694-3.248z"/><path fill="#002140" d="M25.5 31.401s1.777-1.594 1.777-3.341-1.684-3.371-3.01-3.371-2.187 2.23-2.165 2.707c.018.479.783 2.83 1.744 3.491l-1.625 8.607s3.73.783 4.634.21L25.5 31.395z"/><path fill="#d18000" d="m17.827 22.011-.201-1.714s.302-.451-1.105-.451-3.817.09-3.817.09-.803.089-.803.72v1.355zm18.718 0-.201-1.714s.302-.451-1.105-.451-3.818.09-3.818.09-.802.089-.802.72v1.355h5.929z"/><path fill="#e4bc07" d="m35.944 19.513-.224-5.093s-2.125-9.771-11.545-9.472c-9.417.302-11.512 9.333-11.512 9.333l-.553 5.355 5.091-.12.025-4.394s1.573-5.287 6.985-5.352 6.497 5.412 6.497 5.412l.602 4.574 4.634-.24z"/><path stroke="#002140" stroke-linecap="round" stroke-linejoin="round" d="M38.273 22.123v8.416c0 7.145-5.793 12.938-12.939 12.938-7.145 0-12.938-5.793-12.938-12.938v-8.416z"/><path stroke="#002140" stroke-linecap="round" stroke-linejoin="round" d="M25.968 43.477c-11.564 0-16.062-5.793-16.062-12.94V22.12h3.279"/><path stroke="#002140" stroke-linecap="round" stroke-linejoin="round" d="M29.424 27.875a3.652 3.652 0 0 0-7.303 0c0 1.33.713 2.49 1.774 3.13l-1.817 8.342s3.096 1.826 6.827 0l-1.51-8.207a3.65 3.65 0 0 0 2.027-3.268z"/><path stroke="#002140" stroke-linecap="round" stroke-linejoin="round" d="m26.763 39.665-1.51-8.206a3.65 3.65 0 0 0-.89-6.846m-12.582-2.667V20.61c0-.446.417-.805.93-.805h4.186c.514 0 .93.361.93.805v1.336m12.672 0V20.61c0-.446.416-.805.93-.805h4.185c.514 0 .93.361.93.805v1.336m-19.345-2.141v-3.306a6.974 6.974 0 1 1 13.947 0v3.276"/><path stroke="#002140" stroke-linecap="round" stroke-linejoin="round" d="M35.943 19.772v-3.056c0-6.5-5.268-11.768-11.768-11.768-6.498 0-11.766 5.268-11.766 11.768v3.089"/></svg>
